!!!!SEGMENT: pl-wtm--iii-40-856-2--003_wysocki-kasper-napoleon--quatre-krakowiaks-op-1-krakowiak-no-3.krn
!!!cenid: 18xx:4383
!!!COM: Wysocki, Kasper Napoleon
!!!COM-rismID: pe41024789
!!!CDT: 1810/12/06-1850/09/21
!!!CNT: Polish
!!!GTL: Quatre Krakowiaks op. 1
!!!OTL: Krakowiak. No. 3.
!!!OMV: 003
!!!PDT:
!!!AGN: Secular; Krakowiak
!!!SMS-siglum: PL-Wtm
!!!SMS-shelfmark: III.40.856/2
!!!SMS-shelfwork: 001-003 G
!!!SMS-variant:
!!!SMS-altvar:
!!!NIFC-rismSourceID: 1001153067
!!!NIFC-rismChildID: 1001153067
!!!NIFC-islandoraID: pl-wtm:13659
!!!URL-pdf-islandora: https://repozytorium.nifc.pl/islandora/object/pl-wtm:13659/datastream/PDF/view
!!!URL-scan: https://polish.musicsources.pl/pl/lokalizacje/galeria/druki-muzyczne/16673/5 @EN{Scan on Polish Music Sources Website} @PL{Skany w portalu Dziedzictwo Muzyki Polskiej w otwartym dostępie}
!!!ONB-nifc: UWAGA: skan 5-6.
!!!OMD: Allegro molto.
!!!AIN: 2 piano
!!!key:
**kern	**kern	**dynam
*part2	*part1	*part1
*staff2	*staff1	*
*Ipiano	*Ipiano	*
*I"Piano	*I"Piano	*
*ICklav	*ICklav	*
*clefF4	*clefG2	*
*k[]	*k[]	*
*C:	*C:	*
*M2/4	*M2/4	*
=1	=1	=1
*	*	*^
!	!LO:TX:a:t=([half]=72.)\nKRAKOWIAK.\nN.° 3.	!LO:DY:b	!LO:DY:rj:b=2
(8CC/L	8r	f	sf
!	!LO:TX:b:t=ardito.	!	!
8C/J)	8ccL 8e'/	.	.
8GL 8C'\	8ee 8cc'/	.	.
8A-XJ 8C'\	8ffJ 8dd'/	.	.
*	*	*v	*v
=2	=2	=2
8GL 8C'\	8ggL 8ee'\	.
.	8qbb	.
8F#X 8C'\	8aa 8dd#X'\	.
8G 8C'\	8gg 8ee'\	.
8AnJ 8C'\	8ff#XJ 8dd#'\	.
=3	=3	=3
*	*^	*
!LO:TX:a:t=P:problem:mixed beam	!	!	!
8GL 8C'>\	8ggL 8ee'\	4ryy	.
8CC'/J	8ccJ 8e'\	.	.
!LO:TX:a:t=P:problem:mixed beam	!	!	!
8A-L 8C'>\	8dd'/L	4f\	.
8CC'/J	8g'/J	.	.
*	*v	*v	*
=4	=4	=4
!LO:TX:a:t=P:problem:mixed beam	!	!
8GL 8C'>\	(8eeL 8g^>/	.
8CC'/J	8ccJ 8e/)	.
(8GL 8C\	4r	.
8GJ 8C\)	.	.
=5	=5	=5
(8CC/L	8r	.
8C/J)	8ccL 8e'/	.
8GL 8C'\	8ee 8cc'/	.
8A-XJ 8C'\	8ffJ 8dd'/	.
=6	=6	=6
!LO:TX:a:t=P:problem:mixed beam	!	!
8GL 8C\	8ggL 8ee'\	.
.	8qddd/	.
8CC/J	8ccc 8ee'\	.
8GL 8C'\	8gg 8ee'\	.
8cJ 8C'\	8eeJ 8cc'\	.
=7	=7	=7
*	*^	*
!LO:TX:a:t=P:problem:mixed beam	!	!	!
8GL 8C'>\	8cc'/L	4e\	.
8CC/J	8g'/J	.	.
!LO:TX:a:t=P:problem:mixed beam	!	!	!
8A-XL 8C\	8dd'/L	4f\	.
8CC/J	8g'/J	.	.
*	*v	*v	*
=8	=8	=8
!LO:TX:a:t=P:problem:mixed beam	!	!
8GL 8C\	(8ccL 8e/	.
8CC/J	8ccJ 8e/)	.
(8GL 8C\	4r	.
8GJ 8C\)	.	.
!!LO:LB:g=original
=9||	=9||	=9||
!	!	!LO:DY:a=2
(8GGG/L	8r	sf
8GG/J)	8ddL 8b\	.
8DL 8GG/	8gg 8b\	<
8E-XJ 8GG/	8aaJ 8cc\	.
=10	=10	=10
*^	*^	*
8DL 8GG/	4ryy	8bbL 8dd\	4ryy	.
8AJ 8GG/	.	8cccJ 8cc\	.	.
(<8B/L	4GG\	8ddd/L	4b\	[ ff
8D/J)	.	8gg/J	.	.
=11	=11	=11	=11	=11
(<8E-X/L	2GG\	(8aa/L	4cc\	>
8D/	.	8ee/J)	.	.
8A/	.	(8ff#X/L	4cc\	.
8F#X/J)	.	8dd/J)	.	]
=12	=12	=12	=12	=12
(<8G/L	2GG\	(8aa/L	4b\	.
8D/	.	8gg/J)	.	.
8B^^/	.	4r	4r	.
8D/J)	.	.	.	.
*v	*v	*	*	*
*	*v	*v	*
=13	=13	=13
!	!	!LO:DY:rj:b=2
(8CC/L	8r	sf
8C/J)	8ccL 8e'/	<
8GL 8C\	8ee 8cc'/	.
8A-XJ 8C\	8ffJ 8dd'/	.
=14	=14	=14
*	*	*^
!LO:TX:a:t=P:problem:mixed beam	!	!	!LO:DY:b=2
8GL 8C\	8ggL 8ee'\	.	.
.	8qddd/	.	.
!	!	!	!LO:DY:rj:b=2
8CC/J	8ccc 8ee'\	[	sf
8GL 8C\	8gg 8ee'\	.	.
!	!	!LO:HP:b	!
8cJ 8C\	8eeJ 8cc'\	>	.
*	*	*v	*v
=15	=15	=15
*	*^	*
!LO:TX:a:t=P:problem:mixed beam	!	!	!
8GL 8C\	8cc'/L	4e\	.
8CC/J	8g'/J	.	.
!LO:TX:a:t=P:problem:mixed beam	!	!	!
8A-XL 8C\	8dd'/L	4f\	]
8CC/J	8g'/J	.	.
*	*v	*v	*
=16	=16	=16
!LO:TX:a:t=P:problem:mixed beam	!	!
8GL 8C\	8ccL 8e/	.
8CC/J	8ccJ 8e/	.
8GL 8C\	4r	.
8GJ 8C\	.	.
!!LO:LB:g=original
=17||	=17||	=17||
*^	*	*^
!	!	!	!	!LO:DY:rj:b=2
8AAA/L	4ryy	8r	.	sf
!	!	!	!LO:DY:rj:b	!
8AA/J	.	(8A/L	p	.
(<16E/LL	4AA\	8c/	.	.
16F/	.	.	.	.
16E/	.	8d/J)	.	.
!	!	!	!LO:HP:b	!
16D/JJ)	.	.	<	.
*	*	*	*v	*v
=18	=18	=18	=18
(8C/L	2AA\	(16e/LL	.
.	.	16f/	.
8F/	.	16e/	.
.	.	16d/JJ	.
8E/	.	8c/L	.
8D#X/J	.	8a/J)	.
=19	=19	=19	=19
8Dn/L	2AA\	(16g#X/LL	.
.	.	16a/	.
8C#X/	.	16g#/	.
.	.	16f#X/JJ	[
8Cn/	.	8e/L	.
8BB/J)	.	8ee/J)	.
=20	=20	=20	=20
(<8E/L	4AA\	8cc\L	.
8A/J)	.	8a\J	.
!	!	!LO:TX:a:t=m.s.	!
8aa>/	4ryy	8ra	.
8r	.	8a\	.
=21	=21	=21	=21
*	*	*	*^
!	!	!	!	!LO:DY:rj:b=2
(8AAA/L	4ryy	8r	.	sf
!	!	!	!LO:DY:rj:b	!
8AA/J)	.	(8A/L	p	.
!	!	!	!LO:HP:b	!
(<16E/LL	4AA\	8c/	<	.
16F/	.	.	.	.
16E/	.	8d/J)	.	.
16D/JJ)	.	.	.	.
*	*	*	*v	*v
=22	=22	=22	=22
(<8C/L	2AA\	(16e/LL	.
.	.	16f/	.
8F/	.	16e/	.
.	.	16d/JJ	.
8E/	.	8c/L	.
8D#X/J)	.	8a/J)	[[
*v	*v	*	*
=23	=23	=23
*	*^	*
!LO:TX:a:t=P:problem:mixed beam	!	!	!
8EL 8BB'>\	8g#X'/L	4B\	.
8BBB'/J	8e'/J	.	.
!LO:TX:a:t=P:problem:mixed beam	!	!	!LO:DY:rj
8AL 8D#X 8BB'>\	8f#X'/L	4B\	f
8BBB'/J	8d#X'/J	.	.
!!LO:LB:g=original
=24	=24	=24	=24
*^	*	*	*
(<16G#X/LL	2BB\	(<16e/LL	2B\	.
16A/	.	16f#X/	.	.
16G#/	.	16e/	.	.
16F##X/JJ	.	16d#X/JJ	.	.
8G#/L)	.	8e/L)	.	.
8F#X/J	.	8a'</J	.	.
*v	*v	*	*	*
=25	=25	=25	=25
!LO:TX:a:t=P:problem:mixed beam	!	!	!
8EL 8BB\	8g#X'/L	4B\	.
8BBB/J	8e'/J	.	.
!LO:TX:a:t=P:problem:mixed beam	!	!	!
8AL 8D#X 8BB\	8f#X'/L	4B\	.
8BBB/J	8d#X'/J	.	.
=26	=26	=26	=26
*^	*	*	*
(<16G#X/LL	2BB\	(<16e/LL	2B\	.
16A/	.	16f#X/	.	.
16G#/	.	16e/	.	.
16F##X/JJ	.	16d#X/JJ	.	.
8G#/L)	.	8e/L)	.	.
8F#X/J	.	8a'</J	.	.
*v	*v	*	*	*
=27	=27	=27	=27
!LO:TX:a:t=P:problem:mixed beam	!	!	!
8EL 8BB'>\	8g#X'/L	4B\	.
8BBB'/J	8e'/J	.	.
!LO:TX:a:t=P:problem:mixed beam	!	!	!
8AL 8D#X 8BB'>\	8f#X'/L	4B\	.
8BBB'/J	8d#X'/J	.	.
*	*v	*v	*
=28	=28	=28
*^	*	*
8G#X 8E\	8ryy	8e 8B/	.
!	!	!	!LO:DY:rj:b=2
(<8E/L	4.EE\	4e 4G#X/	sf >
8Dn/	.	.	.
8GG#X/J)	.	8e 8G#/	]
=29	=29	=29	=29
*	*	*	*^
!	!	!	!LO:HP:b	!
8r	8ryy	8f#XL 8d#X/	<	.
!	!	!	!	!LO:DY:rj:b=2
(<8F#X/L	4.EE\	8g#X 8d#/	.	sf
8BB/	.	8a 8d#/	.	.
8AA/J)	.	8bJ 8d#/	[[	.
*	*	*	*v	*v
=30	=30	=30	=30
8r	8ryy	8g#X 8B/	.
!	!	!	!LO:DY:rj:b=2
(<8E/L	4.EE\	4e 4G#X/	sf >
8BB/	.	.	.
8GG#X/J)	.	8e 8G#/	]
!!LO:LB:g=original
=31	=31	=31	=31
*	*	*	*^
!	!	!	!LO:HP:b	!
8r	8ryy	8f#XL 8d#X/	<	.
!	!	!	!	!LO:DY:rj:b=2
(<8F#X/L	4.EE\	8g#X 8d#/	.	sf
8BB/	.	8a 8d#/	.	.
8AA/J)	.	8bJ 8d#/	[[	.
*	*	*	*v	*v
=32	=32	=32	=32
8r	8ryy	8g#X 8B/	.
!	!	!	!LO:DY:rj:b=2
(<8E/L	4.EE\	4e 4G#X/	sf >
8BB/	.	.	.
8GG#X/J)	.	8e 8G#/	]
=33	=33	=33	=33
*	*	*	*^
*	*	*	*^	*
!	!	!	!LO:HP:a:t=cres:ext=ud	!	!
8r	8ryy	8b 8g#X 8d/	<	.	.
!	!	!	!	!LO:HP:a	!LO:DY:rj:b=2
(<8E/L	4.EE\	4g# 4e 4d/	.	>	sf
8BB/	.	.	.	.	.
8GG#X/J)	.	8g# 8e 8d/	.	]	.
=34	=34	=34	=34	=34	=34
8r	8ryy	8dd 8b 8e/	.	.	.
!	!	!	!	!LO:HP:a	!LO:DY:rj:b=2
(<8E/L	4.EE\	4b 4g#X 4d/	.	>	sf
8BB/	.	.	.	.	.
8GG#X/J)	.	8b 8g# 8d/	.	]	.
=35	=35	=35	=35	=35	=35
*	*	*^	*	*	*
!	!	!	!	!	!LO:HP:a	!
8r	8ryy	8ff#X/L	2dd 2b 2g#X\	.	>	.
!	!	!	!	!	!	!LO:DY:rj:b=2
(<8E/L	4.EE\	8ee/J	.	.	.	sf
8BB/	.	8ree	.	.	.	.
8GG#X/J)	.	8ee/	.	.	]	.
=36	=36	=36	=36	=36	=36	=36
!	!	!	!	!	!LO:HP:a	!
8r	8ryy	8ff#X/L	2dd 2b 2g#X\	.	>	.
!	!	!	!	!	!	!LO:DY:rj:b=2
(<8E/L	4.EE\	8ee/J	.	.	.	sf
8BB/	.	8r	.	.	.	.
8GG#X/J)	.	8ee/	.	[	]	.
*	*	*	*	*v	*v	*v
=37	=37	=37	=37	=37
!	!	!	!	!LO:DY:a
(<8c/L	2C\	(8ee/L	8gn\L	p
8A-X/	.	8dd/	8f\J	.
8G/	.	8cc/	4e\	.
8A#X/J)	.	8cc#X/J	.	.
=38	=38	=38	=38	=38
(<8B/L	2C\	8dd/L	4f\	.
8G/	.	8a/J	.	.
.	.	8qcc/	.	.
8d/	.	8b/L	4f\	.
8B/J)	.	8g/J)	.	.
*	*	*v	*v	*
=39	=39	=39	=39
(<8c/L	4.C\	(8ccL 8e/	<
8B/	.	8dd 8f/	.
8c/	.	8ee 8g/	.
8c#X/J)	8r	8eeJ 8g/	[[
!!LO:LB:g=original
=40	=40	=40	=40
*	*	*	*^
!	!	!	!LO:HP:a:t=poco a poco cres.	!LO:DY:a
(<8A/L	4C#X\	8ffL 8a\	<	>
8c#X/	.	8eeJ 8g\)	.	]
8A/	4C#\	8r	.	.
8c#/J)	.	(8ee 8g\	.	.
*	*	*	*v	*v
=41	=41	=41	=41
(<8d/L	2D\	8ffL 8a\	.
8B-X/	.	8ee 8g\	.
8A/	.	8dd 8f\	.
8B#X/J)	.	8dd#XJ 8f#X\	.
=42	=42	=42	=42
*	*	*^	*
(<8c#X/L	2D\	8ee/L	4g\	.
8A/	.	8b/J	.	.
.	.	8qdd/	.	.
8e/	.	8cc#X/L	4g\	.
8c#/J)	.	8a/J)	.	.
*	*	*v	*v	*
=43	=43	=43	=43
(<8d/L	4.D\	(>8ddL 8f/	<
8c#X/	.	8ee 8g/	.
8d/	.	8ff 8a/	.
8d#X/J)	8r	8ff#XJ 8a/	.
=44	=44	=44	=44
(<8B/L	4D#X\	8ggL 8b/	[ >
8d#X/	.	8ff#XJ 8a/)	.
8B/	4D#\	8r	.
8d#/J)	.	8ff# 8a/	]
=45	=45	=45	=45
(<8e/L	2E\	(8ggL 8b\	.
8c/	.	8ff#X 8a\	.
8B/	.	8ee 8g\	.
8c##X/J)	.	8ee#XJ 8g#X\	.
=46	=46	=46	=46
*	*	*^	*
(<8d#X/L	2E\	8ff#X/L	4a\	.
8B/	.	8cc#X/J	.	.
.	.	8qee/	.	.
8f#X/	.	8dd#X/L	4a\	.
8d#/J)	.	8b/J	.	.
*	*	*v	*v	*
=47	=47	=47	=47
(<8e/L	2E\	8eeL 8g\	<
8d#X/	.	8ff#X 8b 8a\	.
8e/	.	8gg 8b 8g\	.
8G/J)	.	8ggJ 8b 8g\)	[[
*v	*v	*	*
=48	=48	=48
*	*	*^
*tremolo	*	*	*
!	!	!LO:DY:a:rj	!
.	8qbb/	f	.
8GL 8GG/	8aaL 8ff 8dd\	.	.
!	!	!	!LO:HP:a
8G 8GG/	8ggJ 8ff 8dd\	.	<
.	8qbb/	.	.
8G 8GG/	8aaL 8ff 8dd\	.	.
8GJ 8GG/	8ggJ 8ff 8dd\	.	.
!!LO:PB:g=original
=49	=49	=49	=49
!	!	!LO:DY:a:rj	!
.	8qbb/	f	.
8GGL 8GGG/	8aaL 8ff 8dd\	.	.
8GG 8GGG/	8ggJ 8ff 8dd\	.	.
.	8qbb/	.	.
8GG 8GGG/	8aaL 8ff 8dd\	.	.
8GGJ 8GGG/	8ggJ 8ff 8dd\	.	.
*	*	*v	*v
=50	=50	=50
.	8qbb/	.
8GGL 8GGG/	8aaL 8ff 8dd\	.
8GG 8GGG/	8ggJ 8ff 8dd\	.
.	8qbb/	.
8GG 8GGG/	8aaL 8ff 8dd\	[ ff
8GGJ 8GGG/	8ggJ 8ff 8dd\	.
*Xtremolo	*	*
=51	=51	=51
!	!	!LO:DY:b=2:rj
(8CC/L	8r	sf
8C/J)	8ccL 8e'/	.
8GL 8C'\	8ee 8cc'/	.
8A-XJ 8C'\	8ffJ 8dd'/	.
=52	=52	=52
8GL 8C'\	8ggL 8ee'\	.
.	8qbb/	.
8F#X 8C'\	8aa 8dd#X'\	.
8G 8C'\	8gg 8ee'\	.
8AnJ 8C'\	8ff#XJ 8dd#'\	.
=53	=53	=53
*	*^	*
!LO:TX:a:t=P:problem:mixed beam	!	!	!
8GL 8C'>\	8ggL 8ee'\	4ryy	.
8CC'/J	8ccJ 8e'\	.	.
!LO:TX:a:t=P:problem:mixed beam	!	!	!
8A-XL 8C'>\	8dd'/L	4f\	.
8CC'/J	8g'/J	.	.
*	*v	*v	*
=54	=54	=54
!LO:TX:a:t=P:problem:mixed beam	!	!
8GL 8C'>\	(8eeL 8g/	sf
8CC'/J	8ccJ 8e/)	.
(8GL 8C\	4r	.
8GJ 8C\)	.	.
=55	=55	=55
(8CC/L	8r	.
8C/J)	8ccL 8e'/	.
8GL 8C'\	8ee 8cc'/	.
8A-XJ 8C'\	8ffJ 8dd'/	.
=56	=56	=56
!LO:TX:a:t=P:problem:mixed beam	!	!
8GL 8C'>\	8ggL 8ee'\	.
.	8qddd/	.
8CC'/J	8ccc 8ee'\	sf
8GL 8C'\	8gg 8ee'\	.
8cJ 8C'\	8eeJ 8cc'\	.
!!LO:LB:g=original
=57	=57	=57
*	*^	*
!LO:TX:a:t=P:problem:mixed beam	!	!	!
8GL 8C'>\	8cc'/L	4e\	.
8CC/J	8g'/J	.	.
!LO:TX:a:t=P:problem:mixed beam	!	!	!
8A-XL 8C\	8dd'/L	4f\	.
8CC/J	8g'/J	.	.
*	*v	*v	*
=58	=58	=58
!LO:TX:a:t=P:problem:mixed beam	!	!
8GL 8C\	(8ccL 8e/	sf
8CC/J	8ccJ 8e/)	.
(8GL 8C\	4r	.
8GJ 8C\)	.	.
=59	=59	=59
!	!	!LO:DY:b=2:rj
(8CC/L	8r	sf
8C/J)	8ccL 8e'/	.
8GL 8C'\	8ee 8cc'/	.
8A-XJ 8C'\	8ffJ 8dd'/	.
=60	=60	=60
8GL 8C'\	8ggL 8ee'\	.
.	8qbb/	.
8F#X 8C'\	8aa 8dd#X'\	.
8G 8C'\	8gg 8ee'\	.
8AJ 8C'\	8ff#XJ 8dd#'\	.
=61	=61	=61
*	*^	*
!LO:TX:a:t=P:problem:mixed beam	!	!	!
8GL 8C'>\	8ggL 8ee'\	4ryy	.
8CC'/J	8ccJ 8e'\	.	.
!LO:TX:a:t=P:problem:mixed beam	!	!	!
8A-XL 8C'>\	8dd'/L	4f\	.
8CC'/J	8g'/J	.	.
*	*v	*v	*
=62	=62	=62
!LO:TX:a:t=P:problem:mixed beam	!	!
8GL 8C'>\	(8eeL 8g/	sf
8CC'/J	8ccJ 8e/)	.
(8GL 8C\	4r	.
8GJ 8C\)	.	.
=63	=63	=63
!	!	!LO:DY:b=2:rj
(8CC/L	8r	sf
8C/J)	8ccL 8e'/	.
8GL 8C'\	8ee 8cc'/	.
8A-XJ 8C'\	8ffJ 8dd'/	.
=64	=64	=64
8GL 8C'/	8ggL 8ee'\	.
.	8qddd/	.
8CJ 8CC'/	8ccc 8ee'\	sf
8GL 8C'\	8gg 8ee'\	.
8cJ 8C'\	8eeJ 8cc'\	.
!!LO:LB:g=original
=65	=65	=65
8GL 8C'/	8ggL 8ee'\	.
.	8qddd/	.
8CJ 8CC'/	8ccc 8ee'\	sf
8GL 8C'\	8gg 8ee'\	.
8cJ 8C'\	8eeJ 8cc'\	.
=66	=66	=66
8GL 8C'/	8ggL 8ee'\	.
.	8qddd/	.
8CJ 8CC'/	8ccc 8ee'\	.
8GL 8C'\	8gg 8ee'\	.
8cJ 8C'\	8eeJ 8cc'\	.
=67	=67	=67
2r	2r	.
=68	=68	=68
*^	*^	*
8r	8r	8ryy	8ee\	sf
(<8c#X/L	4.A\	8a/L	4.g\	p
8d/	.	8b/	.	.
8e/J)	.	8cc#X/J	.	.
=69	=69	=69	=69	=69
*	*clefG2	*	*	*
(8f/L	2A\	8dd/L	8a\L	.
8c#X/	.	8ee/	8g\	.
8d/	.	8ff/	8a\	.
8f/J)	.	8aa/J	8dd\J	.
=70	=70	=70	=70	=70
(8e/L	2A\	8bb-X/L	8cc#X\L	>
8g/	.	8bb-/	8cc#\	.
8f/	.	8aa/	8dd\	.
8g/J)	.	8ee/J	8cc#\J	]
*v	*v	*	*	*
=71	=71	=71	=71
8a 8d'/	(8gg/L	4dd\	sf
*clefF4	*	*	*
8dL 8D\	8ff/J)	.	>
8A 8AA\	4r	4r	.
8FJ 8FF\	.	.	]
=72	=72	=72	=72
*^	*	*	*
8r	8r	8dd'\	8ryy	sf
*clefG2	*	*	*	*
(<8B/L	4.G\	8g/L	4.f\	p
8c/	.	8a/	.	.
8d/J)	.	8b/J	.	.
!!LO:LB:g=original
=73	=73	=73	=73	=73
(<8e/L	2G\	8cc/L	8g\L	.
8B/	.	8dd/	8f\	.
8c/	.	8ee/	8g\	.
8e/J)	.	8aa/J	8cc\J	.
=74	=74	=74	=74	=74
(<8d/L	2G\	8aa/L	8b\L	>
8f/	.	8aa/	8b\	.
8e/	.	8gg/	8cc\	.
8f/J)	.	8dd/J	8b\J	]
*v	*v	*	*	*
=75	=75	=75	=75
8g 8c'/	(8ff/L	4cc\	sf
*clefF4	*	*	*
8cL 8C/	8ee/J)	.	>
8G 8GG/	4r	4ryy	.
8EJ 8EE/	.	.	]
=76	=76	=76	=76
*^	*	*	*
8r	8r	8ryy	8ee'\	sf
(8G#X/L	4.E\	(8ee/L	4.dd\	<
8A/	.	8ff#X/	.	.
8B/J)	.	8gg#X/J)	.	[
=77	=77	=77	=77	=77
!	!	!	!	!LO:HP:t=cres.
(<8c/L	2AA\	8aa/L	8cc\L	<
8B/	.	8bb/	8dd\	.
8A/	.	8ccc/	8ee\	.
8B/J)	.	8bb/J	8dd\J	.
=78	=78	=78	=78	=78
(<8c/L	2D\	8aa/L	8cc\	.
8c/	.	8aa/	[4.cc\	.
8A/	.	8ff#X/	.	.
8F#X/J)	.	8dd/J	.	.
=79	=79	=79	=79	=79
8G/	8G\	(8aa/L	(8cc\L]	.
(8D/L	4.GG\	8gg/J)	8b\J)	sf
8C#X/	.	4r	4ryy	.
8D/J)	.	.	.	.
!!LO:LB:g=original
=80	=80	=80	=80	=80
!	!	!	!	!LO:DY:rj
8.D/L	[2GG\	(8.ddd:/L	(2ff#X: 2cc:\	f
16E-X/K	.	16ccc/K	.	.
8D/	.	8aa/	.	.
8D/J	.	8ff#/J	.	.
=81	=81	=81	=81	=81
8D/	8GG\]	8aa/L	8cc\L	.
(8D/L	4.GG\	8gg/J)	8b\J)	sf
8C#X/	.	4r	4ryy	.
8D/J)	.	.	.	.
=82	=82	=82	=82	=82
8.D/L	[2GG\	(8.ddd:/L	2ff#X: 2cc:\	.
16E-X/K	.	16ccc/K	.	.
8D/	.	8aa/	.	.
8D/J	.	8ff#/J	.	.
=83	=83	=83	=83	=83
8D/	8GG\]	8aa/L	8cc\L	.
(8D/L	4.GG\	8gg/J)	8b\J	sf
8C#X/	.	4r	4ryy	.
8D/J)	.	.	.	.
*	*	*v	*v	*
=84	=84	=84	=84
*	*tremolo	*	*
!	!LO:TX:t=jubiloso.	!	!LO:DY:rj
!	!LO:TX:b:t=....	!	!
8F'/L	8GG\L	8fffL 8ddd'M\	p
8E'/	8GG\	8eee 8ccc'\	.
8D'/	8GG\	8ddd 8bb'\	.
8D#X'/J	8GG\J	8ddd#XJ 8bb'\	.
=85	=85	=85	=85
.	.	16qqeee/LL	.
.	.	16qqfff/JJ	.
8E'/L	8GG\L	(8eeeL 8ccc\	.
8Dn'/	8GG\	8dddn 8bb\)	.
8C'/	8GG\	8ccc 8aa\	.
8D'/J	8GG\J	8bbJ 8gg\	.
*	*Xtremolo	*	*
=86	=86	=86	=86
*	*	*^	*
(8E-X/L	[2GG\	8aa'/L	8cc\	.
8D/	.	(8aa/	[4.cc\	.
8A/	.	8ee/	.	.
8F#X/J	.	8ff#X/J	.	.
!!LO:LB:g=original
=87	=87	=87	=87	=87
8G/)	8GG\]	8aa/L	8cc\L]	.
(8D/L	4.GG\	8gg/J)	8b\J	sf
8C#X/	.	4r	4ryy	.
8D/J)	.	.	.	.
*	*	*v	*v	*
=88	=88	=88	=88
*	*tremolo	*	*
8F'/L	8GG\L	8ffL 8dd'M\	.
8E'/	8GG\	8ee 8cc'\	.
8D'/	8GG\	8dd 8b'\	.
8D#X'/J	8GG\J	8dd#XJ 8b'\	.
=89	=89	=89	=89
.	.	16qqee/LL	.
.	.	16qqff/JJ	.
8E'/L	8GG\L	(8eeL 8cc\	.
8Dn'/	8GG\	8ddn 8b\)	.
8C'/	8GG\	8cc 8a'\	.
8D'/J	8GG\J	8bJ 8g'\	.
*	*Xtremolo	*	*
=90	=90	=90	=90
*	*	*^	*
(<8E-X'/L	[2GG\	8a'/L	8c\	.
8D'/	.	(8a/	[4.c\	.
8A'/	.	8e/	.	.
8F#X'/J	.	8f#X/J	.	.
=91	=91	=91	=91	=91
8G/)	8GG\]	8a/L	8c\L]	.
(<8D/L	4.GG\	8g/J)	8B\J	sf
8C#X/	.	4r	4ryy	.
8D/J)	.	.	.	.
=92	=92	=92	=92	=92
(8E-X/L	[2GG\	8a'/L	8c\	.
8D/	.	(8a/	[4.c\	.
8A/	.	8e/	.	.
8F#X/J	.	8f#X/J	.	.
=93	=93	=93	=93	=93
8G/)	8GG\]	8a/L	8c\L]	.
(<8D/L	4.GG\	8g/J)	8B\J	sf
8C#X/	.	4r	4ryy	.
8D/J)	.	.	.	.
!!LO:PB:g=original
=94	=94	=94	=94	=94
(<8E-X/L	2GG\	8a'/L	8c\	.
8D/	.	(8a/	4.c\	.
8A/	.	8e/	.	.
8F#X/J)	.	8f#X/J	.	.
=95	=95	=95	=95	=95
(<8E-X/L	[2GG\	8a/L)	8c\	.
8D/	.	(8a/	4.c\	.
8A/	.	8e/	.	.
8F#X/J)	.	8f#X/J	.	.
=96	=96	=96	=96	=96
(<8G/L	2GG\]	8g/L)	8B\	.
8D/	.	(8g/	4B\	.
8Fn/	.	8d/	.	.
8C#X/J)	.	8e/J	8B-X\	.
=97	=97	=97	=97	=97
(<8D/L	2GG\	8f/L)	8A\	.
8AA/	.	(8f/	4A\	.
8E^^/	.	8c/	.	.
8D/J)	.	8B/J)	8F\	.
*v	*v	*	*	*
*	*v	*v	*
=98	=98	=98
!	!	!LO:DY:b=2:rj
(8CC/L	8r	sf
!	!	!LO:DY:rj
8C/J)	8ccL 8e'/	sf
8GL 8C'\	8ee 8cc'/	.
8A-XJ 8C'\	8ffJ 8dd'/	.
=99	=99	=99
8GL 8C'\	8ggL 8ee\	.
.	8qbb/	.
8F#X 8C'\	8aa 8dd#X\	.
8G 8C'\	8gg 8ee\	.
8AJ 8C'\	8ff#XJ 8dd#\	.
=100	=100	=100
*	*^	*
!LO:TX:a:t=P:problem:mixed beam	!	!	!
8GL 8C'>\	8ggL 8ee'\	4ryy	.
8CC'/J	8ccJ 8e'\	.	.
!LO:TX:a:t=P:problem:mixed beam	!	!	!
8A-XL 8C'>\	8dd'/L	4f\	.
8CC'/J	8g'/J	.	.
*	*v	*v	*
!!LO:LB:g=original
=101	=101	=101
!LO:TX:a:t=P:problem:mixed beam	!	!
8GL 8C'>\	(8eeL 8g/	.
8CC'/J	8ccJ 8e/)	.
(8GL 8C\	4r	.
8GJ 8C\)	.	.
=102	=102	=102
(8CC/L	8r	.
8C/J)	8ccL 8e'/	.
8GL 8C\	8ee 8cc'/	.
8A-XJ 8C\	8ffJ 8dd'/	.
=103	=103	=103
8GL 8C'/	8ggL 8ee'\	.
.	8qddd/	.
8CJ 8CC'/	8ccc 8ee\	sf
8GL 8C'\	8gg 8ee'\	.
8cJ 8C'\	8eeJ 8cc'\	.
=104	=104	=104
8GL 8C'/	8ggL 8ee'\	.
.	8qddd/	.
8CJ 8CC'/	8ccc 8ee'\	.
8GL 8C'\	8gg 8ee'\	.
8cJ 8C'\	8eeJ 8cc'\	.
=105	=105	=105
8GL 8C'/	8ggL 8ee'\	.
.	8qddd/	.
8CJ 8CC'/	8ccc 8ee'\	.
8GL 8C'\	8gg 8ee'\	.
8cJ 8C'\	8eeJ 8cc'\	.
=106	=106	=106
2r	2r	.
=107	=107	=107
8AAA/L	8r	ff
!	!LO:TX:b:t=sempre	!
8AA/J	8bb-XL 8cc#X\	>
8FL 8AA/	8aa 8dd\	.
8EJ 8AA/	8ggJ 8cc#\	]
!!LO:LB:g=original
=108	=108	=108
!	!LO:TX:b:t=quasi stacc.	!
8FL 8D/	8ffL 8dd\	.
.	8qeee/	.
8DJ 8DD/	8ddd 8ff\	sf
8AL 8D\	8aa 8ff\	.
8fJ 8D\	8ffJ 8dd\	.
=109	=109	=109
8GGG/L	8r	.
8GG/J	8aa-XL 8b\	>
8EL 8GG/	8gg 8cc\	.
8DJ 8GG/	8ffJ 8b\	]
=110	=110	=110
8EL 8C/	8eeL 8cc\	.
.	8qddd/	.
8CJ 8CC/	8ccc 8ee\	sf
8GL 8C\	8gg 8ee\	.
8eJ 8C\	8eeJ 8cc\	.
=111	=111	=111
(8FFF#X/L	8r	.
8FF#X/J)	8cccL 8dd#X\	>
8D#XL 8FF#/	8bb 8cc\	.
8F#XJ 8FF#/	8aaJ 8dd#\	]
=112	=112	=112
*^	*	*
4G/	8G 8GG\	8ggL 8ee\	.
.	8c\L	8gg 8ee\	<
8ryy	8e\	8ccc 8ee\	.
8ryy	8g\J	8dddJ 8ff\	.
=113	=113	=113	=113
*	*	*^	*
4G/	8G 8GG\	8eee/L	2ff\	[ >
.	8ryy	8ddd/	.	.
8ryy	8B\L	8bb/	.	.
8ryy	8d\J	8gg/J	.	]
!!LO:LB:g=original
=114	=114	=114	=114	=114
4G/	8G 8GG\	8ddd/L	2ee\	>
.	8ryy	8ccc/	.	.
8ryy	8c\L	8bb/	.	.
8ryy	8e\J	8aa/J	.	]
*v	*v	*	*	*
*	*v	*v	*
=115	=115	=115
(8FFF#X/L	8r	.
8FF#X/J)	8cccL 8dd#X\	>
8D#XL 8FF#/	8bb 8cc\	.
8F#XJ 8FF#/	8aaJ 8dd#\	]
=116	=116	=116
8G 8GG/	8ggL 8ee\	.
8c\L	8gg 8ee\	<
8e\	8ccc 8ee\	.
8a\J	8dddJ 8ccc 8ff#X\	[
=117	=117	=117
8g 8G'\	8eee 8ccc 8gg'\	.
8r	8r	.
8G 8GG'/	8bb 8gg 8ffn 8dd'\	.
8r;	8r;	.
=118	=118	=118
(8CC/L	8r	.
!	!	!LO:DY:rj
8C/J)	8ccL 8e/	f
8GL 8C\	8ee 8cc/	.
8A-XJ 8C\	8ffJ 8dd/	.
=119	=119	=119
!	!	!LO:HP:t=decrescendo.
8GL 8C\	8ggL 8ee\	>
.	8qbb/	.
8F#X 8C\	8aa 8dd#X\	.
8G 8C\	8gg 8ee\	.
8AnJ 8C\	8ff#XJ 8dd#\	.
!!LO:LB:g=original
=120	=120	=120
8GL 8C\	8ggL 8ee\	.
.	8qbb/	.
8F#X 8C\	8aa 8dd#X\	.
8G 8C\	8gg 8ee\	.
8AJ 8C\	8ff#XJ 8dd#\	.
=121	=121	=121
8GL 8C\	8ggL 8ee\	.
.	8qbb/	.
8F#X 8C\	8aa 8dd#X\	.
8G 8C\	8gg 8ee\	.
8AJ 8C\	8ff#XJ 8dd#\	.
=122	=122	=122
8GL 8C\	8ggL 8ee\	.
.	8qgg/	.
8A-X 8C\	8ffn 8ddn\	.
8G 8C\	8ee 8cc\	.
8F#XJ 8C\	8dd#XJ 8b\	.
=123	=123	=123
8GL 8C\	8eeL 8cc\	.
.	8qgg/	.
8A-X 8C\	8ff 8ddn\	.
8G 8C\	8ee 8cc\	.
8F#XJ 8C\	8dd#XJ 8b\	.
=124	=124	=124
8GL 8C\	8ee 8cc\	.
.	8qee/	.
8A-X 8C\	8ddnL 8f/	.
8G 8C\	8cc 8e/	.
8F#XJ 8C\	8bJ 8d#X/	.
=125	=125	=125
8GL 8C\	8ccL 8e/	.
.	8qee/	.
8A-X 8C\	8ddn 8f/	.
8G 8C\	8cc 8e/	.
8F#XJ 8C\	8bJ 8d#X/	.
!!LO:LB:g=original
=126	=126	=126
8G 8C\	8cc 8e/	.
.	8qg/	.
8CL 8CC/	8fL 8dn/	.
8C 8CC/	8e 8c/	.
8CJ 8CC/	8d#XJ 8B/	.
=127	=127	=127
8C 8CC/	8e 8c/	.
.	8qe</	.
8CL 8CC\	8dn<L 8F</	.
8C 8CC\	8c< 8E</	.
!	!LO:TX:b:t=slentando.	!
8CJ 8CC\	8B<J 8D#X</	.
=128	=128	=128
*tremolo	*	*
8CCL 8CCC/	8c< 8E</	.
.	8qG</	.
8CC 8CCC/	8F<L 8D</	.
8CC 8CCC/	8E< 8C</	.
8CCJ 8CCC/	8D#X<J 8BB</	.
=129	=129	=129
8CCL 8CCC\	8E< 8C</	.
.	8qE</	.
8CC 8CCC\	8Dn<L 8FF</	.
8CC 8CCC\	8C< 8EE</	.
8CCJ 8CCC\	8BB<J 8DD#X</	.
*Xtremolo	*	*
=130	=130	=130
[>2CC [>2CCC\	[2C< [2EE</	.
=131	=131	=131
4CC] 4CCC\]	4C<] 4EE</]	.
4CC 4CCC\	4F< 4AA</	.
=132	=132	=132
[>2CC [>2CCC\	[2E< [2GG</	.
=133	=133	=133
2CC] 2CCC\]	2E<] 2GG<;/]	.
==	==	==
*-	*-	*-
!!!system-decoration: {(*)}
!!!RDF**kern: > = above
!!!RDF**kern: < = below
!!!ENC: Berenika Jozajtis
!!!END: 2022-12-17
!!!ENC: Marta Lawrence
!!!END: 2023-07-17
!!!YEC: Copyright 2022 Narodowy Instytut Fryderyka Chopina (https://polishscores.org)
!!!YEM: License CC-BY-4.0 (https://creativecommons.org/licenses/by/4.0)
